teeny/outline/cost-estimate.svg

<svg width="15" height="15" viewBox="0 0 15 15" fill="none" xmlns="http://www.w3.org/2000/svg">
<path d="M4.5 7H4V8H4.5V7ZM10.5 8H11V7H10.5V8ZM8.5 10H8V11H8.5V10ZM10.5 11H11V10H10.5V11ZM4.5 4H4V5H4.5V4ZM6.5 5H7V4H6.5V5ZM10.5 0.5L10.8536 0.146447L10.7071 0H10.5V0.5ZM13.5 3.5H14V3.29289L13.8536 3.14645L13.5 3.5ZM4.5 8H10.5V7H4.5V8ZM8.5 11H10.5V10H8.5V11ZM4.5 5H6.5V4H4.5V5ZM12.5 14H2.5V15H12.5V14ZM2 13.5V1.5H1V13.5H2ZM2.5 1H10.5V0H2.5V1ZM13 3.5V13.5H14V3.5H13ZM10.1464 0.853553L13.1464 3.85355L13.8536 3.14645L10.8536 0.146447L10.1464 0.853553ZM2.5 14C2.22386 14 2 13.7761 2 13.5H1C1 14.3284 1.67157 15 2.5 15V14ZM12.5 15C13.3284 15 14 14.3284 14 13.5H13C13 13.7761 12.7761 14 12.5 14V15ZM2 1.5C2 1.22386 2.22386 1 2.5 1V0C1.67157 0 1 0.671574 1 1.5H2Z" fill="black"/>
</svg>

<svg viewBox="0 0 15 15" xmlns="http://www.w3.org/2000/svg"><path d="M4.5 7H4v1h.5V7Zm6 1h.5V7h-.5v1Zm-2 2H8v1h.5v-1Zm2 1h.5v-1h-.5v1Zm-6-7H4v1h.5V4Zm2 1H7V4h-.5v1Zm4-4.5l.35-.36 -.15-.15h-.21v.5Zm3 3h.5v-.21l-.15-.15 -.36.35ZM4.5 8h6V7h-6v1Zm4 3h2v-1h-2v1Zm-4-6h2V4h-2v1Zm8 9h-10v1h10v-1ZM2 13.5v-12H1v12h1ZM2.5 1h8V0h-8v1ZM13 3.5v10h1v-10h-1ZM10.14.85l3 2.99 .7-.71 -3-3.01 -.71.7ZM2.49 13.99c-.28 0-.5-.23-.5-.5h-1c0 .82.67 1.5 1.5 1.5v-1Zm10 1c.82 0 1.5-.68 1.5-1.5h-1c0 .27-.23.5-.5.5v1ZM1.99 1.49c0-.28.22-.5.5-.5v-1c-.83 0-1.5.67-1.5 1.5h1Z"/></svg>
